SVG_Azure_Grouped/AI/Virtual Visits Builder.svg

<?xml version="1.0" encoding="UTF-8" standalone="no"?>
<!-- Generated by Microsoft Visio, SVG Export Virtual Visits Builder.svg Page-1 -->

<svg
   xmlns:dc="http://purl.org/dc/elements/1.1/"
   xmlns:cc="http://creativecommons.org/ns#"
   xmlns:rdf="http://www.w3.org/1999/02/22-rdf-syntax-ns#"
   xmlns:svg="http://www.w3.org/2000/svg"
   xmlns="http://www.w3.org/2000/svg"
   xmlns:sodipodi="http://sodipodi.sourceforge.net/DTD/sodipodi-0.dtd"
   xmlns:inkscape="http://www.inkscape.org/namespaces/inkscape"
   width="0.78735399in"
   height="0.590644in"
   viewBox="0 0 56.689396 42.526322"
   xml:space="preserve"
   class="st8"
   version="1.1"
   id="svg66"
   sodipodi:docname="Virtual Visits Builder.svg"
   style="font-size:12px;overflow:visible;color-interpolation-filters:sRGB;fill:none;fill-rule:evenodd;stroke-linecap:square;stroke-miterlimit:3"
   inkscape:version="0.92.5 (2060ec1f9f, 2020-04-08)"><metadata
   id="metadata70"><rdf:RDF><cc:Work
       rdf:about=""><dc:format>image/svg+xml</dc:format><dc:type
         rdf:resource="http://purl.org/dc/dcmitype/StillImage" /></cc:Work></rdf:RDF></metadata><sodipodi:namedview
   pagecolor="#ffffff"
   bordercolor="#666666"
   borderopacity="1"
   objecttolerance="10"
   gridtolerance="10"
   guidetolerance="10"
   inkscape:pageopacity="0"
   inkscape:pageshadow="2"
   inkscape:window-width="640"
   inkscape:window-height="480"
   id="namedview68"
   showgrid="false"
   inkscape:zoom="1.601301"
   inkscape:cx="37.795426"
   inkscape:cy="28.342467"
   inkscape:window-x="0"
   inkscape:window-y="0"
   inkscape:window-maximized="0"
   inkscape:current-layer="svg66" />
	<style
   type="text/css"
   id="style2">
	<![CDATA[
		.st1 {fill:url(#grad0-6);stroke:none;stroke-linecap:butt;stroke-width:34}
		.st2 {fill:#773adc;stroke:none;stroke-linecap:butt;stroke-width:34}
		.st3 {fill:#f2f2f2;stroke:none;stroke-linecap:butt;stroke-width:34}
		.st4 {fill:#b796f9;stroke:none;stroke-linecap:butt;stroke-width:34}
		.st5 {fill:#32bedd;stroke:none;stroke-linecap:butt;stroke-width:34}
		.st6 {fill:url(#grad0-18);stroke:none;stroke-linecap:butt;stroke-width:34}
		.st7 {fill:#c3f1ff;stroke:none;stroke-linecap:butt;stroke-width:34}
		.st8 {fill:none;fill-rule:evenodd;font-size:12px;overflow:visible;stroke-linecap:square;stroke-miterlimit:3}
	]]>
	</style>

	<defs
   id="Patterns_And_Gradients">
		<linearGradient
   id="grad0-6"
   x1="-1.0468441e-05"
   y1="107.05472"
   x2="37.524728"
   y2="107.05472"
   gradientTransform="scale(1.3079379,0.76456229)"
   gradientUnits="userSpaceOnUse">
			<stop
   offset="0"
   stop-color="#773adc"
   stop-opacity="1"
   id="stop4" />
			<stop
   offset="0.23"
   stop-color="#7b3fde"
   stop-opacity="1"
   id="stop6" />
			<stop
   offset="0.505"
   stop-color="#864ee4"
   stop-opacity="1"
   id="stop8" />
			<stop
   offset="0.81"
   stop-color="#9867ed"
   stop-opacity="1"
   id="stop10" />
			<stop
   offset="1"
   stop-color="#a67af4"
   stop-opacity="1"
   id="stop12" />
		</linearGradient>
		<linearGradient
   id="grad0-18"
   x1="-2.5459711e-05"
   y1="97.339177"
   x2="21.567578"
   y2="97.339177"
   gradientTransform="scale(1.07569,0.92963588)"
   gradientUnits="userSpaceOnUse">
			<stop
   offset="0"
   stop-color="#50e6ff"
   stop-opacity="1"
   id="stop15" />
			<stop
   offset="1"
   stop-color="#32bedd"
   stop-opacity="1"
   id="stop17" />
		</linearGradient>
	</defs>
	<g
   id="g64"
   transform="translate(-33.999986,-33.997999)">
		<title
   id="title21">Page-1</title>
		<g
   id="group18294-1"
   transform="translate(34,-34.0157)">
			<title
   id="title23">Virtual Visits Builder.18294</title>
			<g
   id="group18295-2">
				<title
   id="title25">Sheet.18295</title>
				<g
   id="shape18296-3"
   transform="translate(0,-3.4996)">
					<title
   id="title27">Sheet.18296</title>
					<path
   d="m 0,81.85 h 49.08 v 27.06 a 1.64144,1.62337 0 0 1 -1.64,1.63 H 1.64 A 1.64144,1.62337 0 0 1 0,108.91 Z"
   class="st1"
   id="path29"
   inkscape:connector-curvature="0"
   style="fill:url(#grad0-6);stroke:none;stroke-width:34;stroke-linecap:butt" />
				</g>
				<g
   id="shape18297-7"
   transform="translate(0,-32.1863)">
					<title
   id="title32">Sheet.18297</title>
					<path
   d="m 1.65,100.2 h 45.78 a 1.63829,1.62024 0 0 1 1.64,1.63 v 8.71 H 0 v -8.71 a 1.64144,1.62337 0 0 1 1.64,-1.63 z"
   class="st2"
   id="path34"
   inkscape:connector-curvature="0"
   style="fill:#773adc;stroke:none;stroke-width:34;stroke-linecap:butt" />
				</g>
				<g
   id="shape18298-9"
   transform="translate(5.76715,-15.3127)">
					<title
   id="title37">Sheet.18298</title>
					<path
   d="M 0,109.97 V 98.01 C 0,97.7 0.19,97.44 0.42,97.44 h 16.85 c 0.24,0 0.43,0.25 0.43,0.57 v 11.96 c 0,0.31 -0.19,0.57 -0.43,0.57 H 0.42 C 0.19,110.54 0,110.28 0,109.97 Z"
   class="st3"
   id="path39"
   inkscape:connector-curvature="0"
   style="fill:#f2f2f2;stroke:none;stroke-width:34;stroke-linecap:butt" />
				</g>
				<g
   id="shape18299-11"
   transform="translate(5.76715,-7.25519)">
					<title
   id="title42">Sheet.18299</title>
					<path
   d="M 16.73,110.54 H 0.97 C 0.43,110.54 0,110.28 0,109.97 v -3.98 c 0,-0.31 0.43,-0.57 0.97,-0.57 h 15.76 c 0.53,0 0.97,0.26 0.97,0.57 v 3.96 c 0,0.32 -0.44,0.59 -0.97,0.59 z M 38.36,94.11 H 22.03 c -0.55,0 -1,-0.25 -1,-0.56 v -3.93 c 0,-0.31 0.45,-0.57 1,-0.57 h 16.33 c 0.56,0 1.01,0.26 1.01,0.57 v 3.93 c -0.01,0.31 -0.46,0.56 -1.01,0.56 z"
   class="st4"
   id="path44"
   inkscape:connector-curvature="0"
   style="fill:#b796f9;stroke:none;stroke-width:34;stroke-linecap:butt" />
				</g>
				<g
   id="shape18300-13"
   transform="translate(44.5494,-3.01571)">
					<title
   id="title47">Sheet.18300</title>
					<path
   d="M 11.08,110.4 0.74,105.64 A 1.20267,1.18943 0 0 1 0,104.42 v -1.64 a 1.21846,1.20504 0 0 1 0.74,-1.22 l 10.34,-4.75 c 0.55,-0.14 1.06,0.44 1.06,1.21 v 11.16 c 0,0.77 -0.51,1.36 -1.06,1.22 z"
   class="st5"
   id="path49"
   inkscape:connector-curvature="0"
   style="fill:#32bedd;stroke:none;stroke-width:34;stroke-linecap:butt" />
				</g>
				<g
   id="shape18301-15"
   transform="translate(26.907)">
					<title
   id="title52">Sheet.18301</title>
					<path
   d="m 0,109.33 a 1.21533,1.20194 -180 0 0 1.22,1.21 h 20.77 a 1.21533,1.20194 -180 0 0 1.21,-1.21 V 91.69 a 1.21533,1.20194 -180 0 0 -1.21,-1.2 H 1.22 A 1.21533,1.20194 -180 0 0 0,91.69 Z"
   class="st6"
   id="path54"
   inkscape:connector-curvature="0"
   style="fill:url(#grad0-18);stroke:none;stroke-width:34;stroke-linecap:butt" />
				</g>
				<g
   id="shape18302-19"
   transform="translate(33.9968,-4.61098)">
					<title
   id="title57">Sheet.18302</title>
					<path
   d="m 0,105.2 v -4.31 a 1.20583,1.19255 0 0 1 1.81,-1.03 l 3.79,2.15 3.77,2.15 a 1.20899,1.19567 0 0 1 0,2.07 l -3.77,2.15 -3.79,2.16 A 1.20583,1.19255 0 0 1 0,109.5 Z"
   class="st7"
   id="path59"
   inkscape:connector-curvature="0"
   style="fill:#c3f1ff;stroke:none;stroke-width:34;stroke-linecap:butt" />
				</g>
			</g>
		</g>
	</g>
</svg>

<?xml version="1.0" encoding="UTF-8" standalone="no"?>
<!DOCTYPE svg PUBLIC "-//W3C//DTD SVG 1.1//EN" "http://www.w3.org/Graphics/SVG/1.1/DTD/svg11.dtd">
<!-- Generated by Microsoft Visio, SVG Export Virtual Visits Builder.svg Page-1 -->
<svg xmlns="http://www.w3.org/2000/svg" xmlns:xlink="http://www.w3.org/1999/xlink" xmlns:ev="http://www.w3.org/2001/xml-events"
		width="1.73185in" height="1.53521in" viewBox="0 0 124.693 110.535" xml:space="preserve" color-interpolation-filters="sRGB"
		class="st8">
	<style type="text/css">
	<![CDATA[
		.st1 {fill:url(#grad0-6);stroke:none;stroke-linecap:butt;stroke-width:34}
		.st2 {fill:#773adc;stroke:none;stroke-linecap:butt;stroke-width:34}
		.st3 {fill:#f2f2f2;stroke:none;stroke-linecap:butt;stroke-width:34}
		.st4 {fill:#b796f9;stroke:none;stroke-linecap:butt;stroke-width:34}
		.st5 {fill:#32bedd;stroke:none;stroke-linecap:butt;stroke-width:34}
		.st6 {fill:url(#grad0-18);stroke:none;stroke-linecap:butt;stroke-width:34}
		.st7 {fill:#c3f1ff;stroke:none;stroke-linecap:butt;stroke-width:34}
		.st8 {fill:none;fill-rule:evenodd;font-size:12px;overflow:visible;stroke-linecap:square;stroke-miterlimit:3}
	]]>
	</style>

	<defs id="Patterns_And_Gradients">
		<linearGradient id="grad0-6" x1="0" y1="0" x2="1" y2="0" gradientTransform="rotate(-90 0.5 0.5)">
			<stop offset="0" stop-color="#773adc" stop-opacity="1"/>
			<stop offset="0.23" stop-color="#7b3fde" stop-opacity="1"/>
			<stop offset="0.505" stop-color="#864ee4" stop-opacity="1"/>
			<stop offset="0.81" stop-color="#9867ed" stop-opacity="1"/>
			<stop offset="1" stop-color="#a67af4" stop-opacity="1"/>
		</linearGradient>
		<linearGradient id="grad0-18" x1="0" y1="0" x2="1" y2="0" gradientTransform="rotate(90 0.5 0.5)">
			<stop offset="0" stop-color="#50e6ff" stop-opacity="1"/>
			<stop offset="1" stop-color="#32bedd" stop-opacity="1"/>
		</linearGradient>
	</defs>
	<g>
		<title>Page-1</title>
		<g id="group17864-1" transform="translate(34,-34.0157)">
			<title>Virtual Visits Builder.17864</title>
			<g id="group17865-2">
				<title>Sheet.17865</title>
				<g id="shape17866-3" transform="translate(-2.79776E-13,-3.4996)">
					<title>Sheet.17866</title>
					<path d="M0 81.85 L49.08 81.85 L49.08 108.91 A1.64144 1.62337 0 0 1 47.44 110.54 L1.64 110.54 A1.64144 1.62337
								 0 0 1 0 108.91 L0 81.85 Z" class="st1"/>
				</g>
				<g id="shape17867-7" transform="translate(2.8777E-13,-32.1863)">
					<title>Sheet.17867</title>
					<path d="M1.65 100.2 L47.43 100.2 A1.63829 1.62024 0 0 1 49.07 101.83 L49.07 110.54 L0 110.54 L0 101.83 A1.64144
								 1.62337 0 0 1 1.64 100.2 L1.65 100.2 Z" class="st2"/>
				</g>
				<g id="shape17868-9" transform="translate(5.76715,-15.3127)">
					<title>Sheet.17868</title>
					<path d="M0 109.97 L0 98.01 C0 97.7 0.19 97.44 0.42 97.44 L17.27 97.44 C17.51 97.44 17.7 97.69 17.7 98.01 L17.7
								 109.97 C17.7 110.28 17.51 110.54 17.27 110.54 L0.42 110.54 C0.19 110.54 0 110.28 0 109.97 Z"
							class="st3"/>
				</g>
				<g id="shape17869-11" transform="translate(5.76715,-7.25519)">
					<title>Sheet.17869</title>
					<path d="M16.73 110.54 L0.97 110.54 C0.43 110.54 0 110.28 0 109.97 L0 105.99 C0 105.68 0.43 105.42 0.97 105.42
								 L16.73 105.42 C17.26 105.42 17.7 105.68 17.7 105.99 L17.7 109.95 C17.7 110.27 17.26 110.54 16.73
								 110.54 ZM38.36 94.11 L22.03 94.11 C21.48 94.11 21.03 93.86 21.03 93.55 L21.03 89.62 C21.03 89.31
								 21.48 89.05 22.03 89.05 L38.36 89.05 C38.92 89.05 39.37 89.31 39.37 89.62 L39.37 93.55 C39.36 93.86
								 38.91 94.11 38.36 94.11 Z" class="st4"/>
				</g>
				<g id="shape17870-13" transform="translate(44.5494,-3.01571)">
					<title>Sheet.17870</title>
					<path d="M11.08 110.4 L0.74 105.64 A1.20267 1.18943 0 0 1 -0 104.42 L0 102.78 A1.21846 1.20504 0 0 1 0.74 101.56
								 L11.08 96.81 C11.63 96.67 12.14 97.25 12.14 98.02 L12.14 109.18 C12.14 109.95 11.63 110.54 11.08
								 110.4 Z" class="st5"/>
				</g>
				<g id="shape17871-15" transform="translate(26.907,1.42109E-14)">
					<title>Sheet.17871</title>
					<path d="M0 109.33 A1.21533 1.20194 -180 0 0 1.22 110.54 L21.99 110.54 A1.21533 1.20194 -180 0 0 23.2 109.33
								 L23.2 91.69 A1.21533 1.20194 -180 0 0 21.99 90.49 L1.22 90.49 A1.21533 1.20194 -180 0 0 0 91.69
								 L0 109.33 Z" class="st6"/>
				</g>
				<g id="shape17872-19" transform="translate(33.9968,-4.61098)">
					<title>Sheet.17872</title>
					<path d="M0 105.2 L0 100.89 A1.20583 1.19255 0 0 1 1.81 99.86 L5.6 102.01 L9.37 104.16 A1.20899 1.19567 0 0 1
								 9.37 106.23 L5.6 108.38 L1.81 110.54 A1.20583 1.19255 0 0 1 -0 109.5 L0 105.2 Z" class="st7"/>
				</g>
			</g>
		</g>
	</g>
</svg>
